img/basket.svg

<svg width="24" height="24" viewBox="0 0 24 24" fill="none" xmlns="http://www.w3.org/2000/svg">
<path fill-rule="evenodd" clip-rule="evenodd" d="M5.69865 7L10.0973 2.78467C11.161 1.7653 12.839 1.7653 13.9027 2.78467L18.3013 7H20.847C21.4555 7 21.923 7.53899 21.8369 8.14142L20.368 18.4243C20.1568 19.9022 18.8911 21 17.3981 21H6.6019C5.10895 21 3.84318 19.9022 3.63205 18.4243L2.16307 8.14142C2.07701 7.53899 2.54447 7 3.15302 7H5.69865ZM11.1351 3.86766C11.6186 3.4043 12.3814 3.4043 12.8649 3.86766L16.1334 7H7.86658L11.1351 3.86766ZM3.72952 8.5L5.11697 18.2121C5.22254 18.9511 5.85542 19.5 6.6019 19.5H17.3981C18.1446 19.5 18.7775 18.9511 18.883 18.2121L20.2705 8.5H3.72952Z" fill="black"/>
<path fill-rule="evenodd" clip-rule="evenodd" d="M8 11.25C8.41421 11.25 8.75 11.5858 8.75 12V16C8.75 16.4142 8.41421 16.75 8 16.75C7.58579 16.75 7.25 16.4142 7.25 16V12C7.25 11.5858 7.58579 11.25 8 11.25Z" fill="black"/>
<path fill-rule="evenodd" clip-rule="evenodd" d="M12 11.25C12.4142 11.25 12.75 11.5858 12.75 12V16C12.75 16.4142 12.4142 16.75 12 16.75C11.5858 16.75 11.25 16.4142 11.25 16V12C11.25 11.5858 11.5858 11.25 12 11.25Z" fill="black"/>
<path fill-rule="evenodd" clip-rule="evenodd" d="M16 11.25C16.4142 11.25 16.75 11.5858 16.75 12V16C16.75 16.4142 16.4142 16.75 16 16.75C15.5858 16.75 15.25 16.4142 15.25 16V12C15.25 11.5858 15.5858 11.25 16 11.25Z" fill="black"/>
</svg>

<svg xmlns="http://www.w3.org/2000/svg" width="24" height="24" fill="none"><path fill="#000" fill-rule="evenodd" d="m5.699 7 4.398-4.215a2.75 2.75 0 0 1 3.806 0L18.3 7h2.546a1 1 0 0 1 .99 1.141l-1.469 10.283A3 3 0 0 1 17.398 21H6.602a3 3 0 0 1-2.97-2.576L2.163 8.141A1 1 0 0 1 3.153 7h2.546Zm5.436-3.132a1.25 1.25 0 0 1 1.73 0L16.133 7H7.867l3.268-3.132ZM3.73 8.5l1.387 9.712A1.5 1.5 0 0 0 6.602 19.5h10.796a1.5 1.5 0 0 0 1.485-1.288L20.27 8.5H3.73Z" clip-rule="evenodd"/><path fill="#000" fill-rule="evenodd" d="M8 11.25a.75.75 0 0 1 .75.75v4a.75.75 0 0 1-1.5 0v-4a.75.75 0 0 1 .75-.75ZM12 11.25a.75.75 0 0 1 .75.75v4a.75.75 0 0 1-1.5 0v-4a.75.75 0 0 1 .75-.75ZM16 11.25a.75.75 0 0 1 .75.75v4a.75.75 0 0 1-1.5 0v-4a.75.75 0 0 1 .75-.75Z" clip-rule="evenodd"/></svg>
